packages/tokens/icons/enterprise/size32Px.svg

<svg viewBox="0 0 32 32" fill="none" xmlns="http://www.w3.org/2000/svg" width="1em" height="1em"><path d="M5.5 16C5.5 15.1716 6.17157 14.5 7 14.5H10.5V28.5H6C5.72386 28.5 5.5 28.2761 5.5 28L5.5 16Z" stroke="currentColor"/><path d="M22.5 11.5H26C26.8284 11.5 27.5 12.1716 27.5 13V28C27.5 28.2761 27.2761 28.5 27 28.5H22.5V11.5Z" stroke="currentColor"/><path d="M10.5 5C10.5 4.17157 11.1716 3.5 12 3.5L21 3.5C21.8284 3.5 22.5 4.17157 22.5 5V28.5H10.5L10.5 5Z" stroke="currentColor"/><rect x="13.5" y="21.5" width="2" height="2" rx="0.5" stroke="currentColor"/><rect x="13.5" y="16.5" width="2" height="2" rx="0.5" stroke="currentColor"/><rect x="13.5" y="11.5" width="2" height="2" rx="0.5" stroke="currentColor"/><rect x="13.5" y="6.5" width="2" height="2" rx="0.5" stroke="currentColor"/><rect x="17.5" y="21.5" width="2" height="2" rx="0.5" stroke="currentColor"/><rect x="17.5" y="16.5" width="2" height="2" rx="0.5" stroke="currentColor"/><rect x="17.5" y="11.5" width="2" height="2" rx="0.5" stroke="currentColor"/><rect x="17.5" y="6.5" width="2" height="2" rx="0.5" stroke="currentColor"/></svg>

<svg xmlns="http://www.w3.org/2000/svg" fill="none" viewBox="0 0 32 32" width="1em" height="1em"><path stroke="currentColor" d="M5.5 16A1.5 1.5 0 0 1 7 14.5h3.5v14H6a.5.5 0 0 1-.5-.5V16Zm17-4.5H26a1.5 1.5 0 0 1 1.5 1.5v15a.5.5 0 0 1-.5.5h-4.5v-17ZM10.5 5A1.5 1.5 0 0 1 12 3.5h9A1.5 1.5 0 0 1 22.5 5v23.5h-12V5Z"/><rect width="2" height="2" x="13.5" y="21.5" stroke="currentColor" rx=".5"/><rect width="2" height="2" x="13.5" y="16.5" stroke="currentColor" rx=".5"/><rect width="2" height="2" x="13.5" y="11.5" stroke="currentColor" rx=".5"/><rect width="2" height="2" x="13.5" y="6.5" stroke="currentColor" rx=".5"/><rect width="2" height="2" x="17.5" y="21.5" stroke="currentColor" rx=".5"/><rect width="2" height="2" x="17.5" y="16.5" stroke="currentColor" rx=".5"/><rect width="2" height="2" x="17.5" y="11.5" stroke="currentColor" rx=".5"/><rect width="2" height="2" x="17.5" y="6.5" stroke="currentColor" rx=".5"/></svg>
